!!!!SEGMENT: pl-cz--iii-696--006_volckmer-augustin--missa-in-es-sanctus.krn
!!!cenid: 17xx:1203
!!!COM: Volckmer, Augustin
!!!COM-rismid: pe30020656
!!!CDT: 1755-~1820
!!!CNT:
!!!OPR: Missa in Es
!!!OTL: Sanctus
!!!OMV: 006
!!!PDT:
!!!AGN: Sacred; Mass
!!!SMS-siglum: PL-CZ
!!!SMS-shelfmark: III-696
!!!SMS-shelfwork: 001-006 M
!!!SMS-variant:
!!!SMS-altvar:
!!!NIFC-rismid: 300001398
!!!OMD: Adagio Molto
!!!system-decoration: [(s1,s2)][(s3,s4)][(s5,s6)][(s7)][(s8,s9,s10,s11)][(s12,s13,s14)][(s15)]
**kern	**fba	**dynam	**kern	**dynam	**kern	**dynam	**kern	**dynam	**kern	**text	**dynam	**kern	**text	**dynam	**kern	**text	**dynam	**kern	**text	**dynam	**kern	**kern	**dynam	**kern	**dynam	**kern	**kern	**dynam	**kern	**dynam	**kern	**dynam
*part15	*	*part15	*part14	*part14	*part13	*part13	*part12	*part12	*part11	*part11	*part11	*part10	*part10	*part10	*part9	*part9	*part9	*part8	*part8	*part8	*part7	*part6	*part6	*part5	*part5	*part4	*part3	*part3	*part2	*part2	*part1	*part1
*staff15	*	*	*staff14	*	*staff13	*	*staff12	*	*staff11	*staff11	*	*staff10	*staff10	*	*staff9	*staff9	*	*staff8	*staff8	*	*staff7	*staff6	*	*staff5	*	*staff4	*staff3	*	*staff2	*	*staff1	*
*Iorgan	*	*	*Iempty	*	*Iempty	*	*Ivioln	*	*Iempty	*	*	*Itenor	*	*	*Ialto	*	*	*Ivox	*	*	*Iempty	*Iempty	*	*Icor	*	*Iempty	*Iempty	*	*Iempty	*	*Iempty	*
*I"Organo.	*	*	*I"Viola: obg	*	*I"Violino. Secundo.	*	*I"Violino Primo.	*	*I"Baſſo.	*	*	*I"Tenore.	*	*	*I"Alto:	*	*	*I"Canto.	*	*	*I"Tympano do Es. B.	*I"Corno Secundo.	*	*I"Corno Primo.	*	*I"Bassoon	*I"Fagotto Primo. e Secundo.	*	*I"Huba. Secundo.	*	*I"Huba Primo	*
*I'Org	*	*	*I'Vla oblig	*	*I'Vl II	*	*I'Vl I	*	*I'B	*	*	*I'T	*	*	*I'A	*	*	*I'S	*	*	*I'Timp	*I'Cor II in D#	*	*I'Cor I in D#	*	*I'Fag II	*I'Fag I	*	*I'Ob II	*	*I'Ob I	*
*clefF4	*	*	*clefC3	*	*clefG2	*	*clefG2	*	*clefF4	*	*	*clefC4	*	*	*clefC3	*	*	*clefC1	*	*	*clefF4	*clefG2	*	*clefG2	*	*clefF4	*clefF4	*	*clefG2	*	*clefG2	*
*	*	*	*	*	*	*	*	*	*	*	*	*	*	*	*	*	*	*	*	*	*	*ITrd5c9	*	*ITrd5c9	*	*	*	*	*	*	*	*
*k[b-e-a-]	*	*	*k[b-e-a-]	*	*k[b-e-a-]	*	*k[b-e-a-]	*	*k[b-e-a-]	*	*	*k[b-e-a-]	*	*	*k[b-e-a-]	*	*	*k[b-e-a-]	*	*	*k[]	*k[b-e-a-]	*	*k[b-e-a-]	*	*k[b-e-a-]	*k[b-e-a-]	*	*k[b-e-a-]	*	*k[b-e-a-]	*
*E-:	*	*	*E-:	*	*E-:	*	*E-:	*	*E-:	*	*	*	*	*	*E-:	*	*	*E-:	*	*	*	*	*	*	*	*E-:	*E-:	*	*E-:	*	*E-:	*
*M4/4	*	*	*M4/4	*	*M4/4	*	*M4/4	*	*M4/4	*	*	*M4/4	*	*	*M4/4	*	*	*M4/4	*	*	*M4/4	*M4/4	*	*M4/4	*	*M4/4	*M4/4	*	*M4/4	*	*M4/4	*
*met(c)	*	*	*met(c)	*	*met(c)	*	*met(c)	*	*met(c)	*	*	*met(c)	*	*	*met(c)	*	*	*met(c)	*	*	*met(c)	*met(c)	*	*met(c)	*	*met(c)	*met(c)	*	*met(c)	*	*met(c)	*
=1	=1	=1	=1	=1	=1	=1	=1	=1	=1	=1	=1	=1	=1	=1	=1	=1	=1	=1	=1	=1	=1	=1	=1	=1	=1	=1	=1	=1	=1	=1	=1	=1
*	*	*	*2\right	*	*2\right	*	*2\right	*	*	*	*	*	*	*	*	*	*	*	*	*	*	*	*	*	*	*	*	*	*	*	*	*
!!LO:TX:t=P:problem:oznaczenia dynamiczne i artykulacyjne czerwonym atramentem
!	!	!	!	!	!	!	!LO:TX:a:t=P:problem:w źródle w partii Violino Primo wszystkie caudy po prawej stronie	!	!	!	!	!	!	!	!	!	!	!	!	!	!	!	!	!	!	!	!	!	!	!	!	!
!	!	!	!	!	!	!	!	!	!	!	!	!	!	!	!LO:TX:t=P:problem:skan 12	!	!	!	!	!	!	!	!	!	!	!	!	!	!	!	!	!
!	!	!	!	!	!	!	!	!	!LO:TX:t=P:problem:kolejność znaków: E- BB- A-, A- zamiast AA-	!	!	!LO:TX:t=P:problem:skan 11, 14	!	!	!LO:TX:t=P:problem:kolejność znaków: A- e- B-	!	!	!LO:TX:t=P:problem:kolejność znaków: a- e- b-	!	!	!	!	!	!	!	!	!LO:TX:t=P:problem:kolejność znaków:E- A- BB-	!	!	!	!	!
!	!	!	!LO:TX:t=P:problem:kolejność znaków: A- e- B-	!	!.	!	!	!	!	!	!	!LO:TX:t=P:problem:kolejność znaków: A- e- B-	!	!	!	!	!	!	!	!	!LO:TX:b:Bi:t=7.	!	!	!LO:TX:a:Bi:t=in Dis:rj	!	!	!	!	!LO:TX:t=P:problem:kolejność znaków:a- e- b-	!	!	!
!LO:TX:a:Bi:t=4	!	!	!	!	!	!	!LO:TX:b:Bi:t=Dolce:color=red	!	!LO:TX:a:Bi:t=4	!	!	!LO:TX:a:Bi:t=Adagio	!	!	!LO:TX:a:Bi:t=4	!	!	!LO:TX:a:Bi:t=4	!	!	!	!	!	!LO:TX:a:Bi:t=4	!	!LO:TX:t=P:problem:kolejność znaków:E- A- BB-	!LO:TX:a:Bi:t=4	!	!	!	!LO:TX:a:Bi:t=4	!
!	!	!	!	!	!	!	!	!	!LO:TX:t=P:problem:ozdobna litera S na początku pięciolinii	!	!	!LO:TX:t=P:problem:ozdobna litera S na początku pięciolinii	!	!	!	!	!	!	!	!	!	!	!	!	!	!	!	!	!	!	!	!
!	!	!	!	!	!	!	!	!	!	!	!	!	!	!	!LO:TX:t=P:problem:ozdobna litera S na początku pięciolinii	!	!	!LO:TX:t=P:problem:ozdobna litera S na początku pięciolinii	!	!	!	!	!	!	!	!	!	!	!	!	!	!
00r	.	.	8r	.	8r	.	4.b-\	.	00r	.	.	00r	.	.	00r	.	.	00r	.	.	00r	00r	.	00r	.	00r	00r	.	00r	.	00r	.
!	!	!	!LO:TX:b:Bi:t=Dolce:color=red	!	!LO:TX:a:Bi:t=Dolce:color=red	!	!	!	!	!	!	!	!	!	!	!	!	!	!	!	!	!	!	!	!	!	!	!	!	!	!	!
!	!	!	!	!	!	!LO:DY:b:rj	!	!	!	!	!	!	!	!	!	!	!	!	!	!	!	!	!	!	!	!	!	!	!	!	!	!
.	.	.	8e-'>\L	.	8g'/L	p	.	.	.	.	.	.	.	.	.	.	.	.	.	.	.	.	.	.	.	.	.	.	.	.	.	.
.	.	.	8e-'>\	.	8g'/	.	.	.	.	.	.	.	.	.	.	.	.	.	.	.	.	.	.	.	.	.	.	.	.	.	.	.
.	.	.	8e-'>\J	.	8g'/J	.	8gg\	p	.	.	.	.	.	.	.	.	.	.	.	.	.	.	.	.	.	.	.	.	.	.	.	.
.	.	.	8r	.	8r	.	(>16ee-\LL	.	.	.	.	.	.	.	.	.	.	.	.	.	.	.	.	.	.	.	.	.	.	.	.	.
.	.	.	.	.	.	.	16dd\JJ)	.	.	.	.	.	.	.	.	.	.	.	.	.	.	.	.	.	.	.	.	.	.	.	.	.
!	!	!	!	!LO:DY:b:Bi:t=%sia:color=red:rj	!	!	!	!	!	!	!	!	!	!	!	!	!	!	!	!	!	!	!	!	!	!	!	!	!	!	!	!
.	.	.	8B-'</L	p	8f'/L	.	4dd\	.	.	.	.	.	.	.	.	.	.	.	.	.	.	.	.	.	.	.	.	.	.	.	.	.
.	.	.	8B-'</	.	8f'/	.	.	.	.	.	.	.	.	.	.	.	.	.	.	.	.	.	.	.	.	.	.	.	.	.	.	.
.	.	.	8c'</J	.	8g'/J	.	8ee-\	.	.	.	.	.	.	.	.	.	.	.	.	.	.	.	.	.	.	.	.	.	.	.	.	.
=2	=2	=2	=2	=2	=2	=2	=2	=2	=2	=2	=2	=2	=2	=2	=2	=2	=2	=2	=2	=2	=2	=2	=2	=2	=2	=2	=2	=2	=2	=2	=2	=2
.	.	.	(<8A-/L	.	8a-|</L	.	8cc|<\L	.	.	.	.	.	.	.	.	.	.	.	.	.	.	.	.	.	.	.	.	.	.	.	.	.
.	.	.	8F/)	.	(<8a-/	.	8cc|<\	.	.	.	.	.	.	.	.	.	.	.	.	.	.	.	.	.	.	.	.	.	.	.	.	.
.	.	.	8B-'</	.	8g/	.	(>8b-\	.	.	.	.	.	.	.	.	.	.	.	.	.	.	.	.	.	.	.	.	.	.	.	.	.
.	.	.	8B-'</J	.	8f/J)	.	8a-\J)	.	.	.	.	.	.	.	.	.	.	.	.	.	.	.	.	.	.	.	.	.	.	.	.	.
.	.	.	8B-/L	.	8f|</L	.	8a-|</L	.	.	.	.	.	.	.	.	.	.	.	.	.	.	.	.	.	.	.	.	.	.	.	.	.
.	.	.	8E-/J	.	8e-|</J	.	8g|</J	.	.	.	.	.	.	.	.	.	.	.	.	.	.	.	.	.	.	.	.	.	.	.	.	.
.	.	.	4r	.	4r	.	4r	.	.	.	.	.	.	.	.	.	.	.	.	.	.	.	.	.	.	.	.	.	.	.	.	.
=3	=3	=3	=3	=3	=3	=3	=3	=3	=3	=3	=3	=3	=3	=3	=3	=3	=3	=3	=3	=3	=3	=3	=3	=3	=3	=3	=3	=3	=3	=3	=3	=3
.	.	.	4A-/	.	4c/	.	(<16f/LL	.	.	.	.	.	.	.	.	.	.	.	.	.	.	.	.	.	.	.	.	.	.	.	.	.
.	.	.	.	.	.	.	16en/)	.	.	.	.	.	.	.	.	.	.	.	.	.	.	.	.	.	.	.	.	.	.	.	.	.
.	.	.	.	.	.	.	(<16g/	.	.	.	.	.	.	.	.	.	.	.	.	.	.	.	.	.	.	.	.	.	.	.	.	.
.	.	.	.	.	.	.	16f/JJ)	.	.	.	.	.	.	.	.	.	.	.	.	.	.	.	.	.	.	.	.	.	.	.	.	.
.	.	.	4r	.	4r	.	(<16a-/LL	.	.	.	.	.	.	.	.	.	.	.	.	.	.	.	.	.	.	.	.	.	.	.	.	.
.	.	.	.	.	.	.	16g/)	.	.	.	.	.	.	.	.	.	.	.	.	.	.	.	.	.	.	.	.	.	.	.	.	.
.	.	.	.	.	.	.	(<16b-/	.	.	.	.	.	.	.	.	.	.	.	.	.	.	.	.	.	.	.	.	.	.	.	.	.
.	.	.	.	.	.	.	16a-/JJ)	.	.	.	.	.	.	.	.	.	.	.	.	.	.	.	.	.	.	.	.	.	.	.	.	.
.	.	.	4A-/	.	8c/	.	8cc\	.	.	.	.	.	.	.	.	.	.	.	.	.	.	.	.	.	.	.	.	.	.	.	.	.
.	.	.	.	.	4c/	.	4f/	.	.	.	.	.	.	.	.	.	.	.	.	.	.	.	.	.	.	.	.	.	.	.	.	.
.	.	.	4An/	.	.	.	.	.	.	.	.	.	.	.	.	.	.	.	.	.	.	.	.	.	.	.	.	.	.	.	.	.
!	!	!	!	!	!	!	!LO:SIN:v:s=8e-/	!	!	!	!	!	!	!	!	!	!	!	!	!	!	!	!	!	!	!	!	!	!	!	!	!
.	.	.	.	.	8c/	.	8e/	.	.	.	.	.	.	.	.	.	.	.	.	.	.	.	.	.	.	.	.	.	.	.	.	.
=4	=4	=4	=4	=4	=4	=4	=4	=4	=4	=4	=4	=4	=4	=4	=4	=4	=4	=4	=4	=4	=4	=4	=4	=4	=4	=4	=4	=4	=4	=4	=4	=4
.	.	.	8B-/L	.	8B-/L	.	8d/L	.	.	.	.	.	.	.	.	.	.	.	.	.	.	.	.	.	.	.	.	.	.	.	.	.
.	.	.	8B-/	.	8f/	.	8b- 8d/	.	.	.	.	.	.	.	.	.	.	.	.	.	.	.	.	.	.	.	.	.	.	.	.	.
.	.	.	8B-/	.	8f/	.	8b- 8d/	.	.	.	.	.	.	.	.	.	.	.	.	.	.	.	.	.	.	.	.	.	.	.	.	.
.	.	.	8B-/J	.	8f/J	.	8b-J 8d/	.	.	.	.	.	.	.	.	.	.	.	.	.	.	.	.	.	.	.	.	.	.	.	.	.
.	.	.	4B-/	.	4f/	.	4b- 4d/	.	.	.	.	.	.	.	.	.	.	.	.	.	.	.	.	.	.	.	.	.	.	.	.	.
.	.	.	4r	.	4r	.	4r	.	.	.	.	.	.	.	.	.	.	.	.	.	.	.	.	.	.	.	.	.	.	.	.	.
!	!	!	!	!	!	!	!LO:LB:g=original	!	!	!	!	!	!	!	!	!	!	!	!	!	!	!	!	!	!	!	!	!	!	!	!	!
=5	=5	=5	=5	=5	=5	=5	=5	=5	=5	=5	=5	=5	=5	=5	=5	=5	=5	=5	=5	=5	=5	=5	=5	=5	=5	=5	=5	=5	=5	=5	=5	=5
*2\right	*	*	*	*	*	*	*	*	*2\right	*	*	*2\right	*	*	*2\right	*	*	*2\right	*	*	*	*2\right	*	*2\right	*	*2\right	*2\right	*	*2\right	*	*2\right	*
!LO:TX:a:Bi:t=Tutti	!	!	!LO:TX:a:Bi:t=1	!	!LO:TX:a:Bi:t=1	!	!LO:TX:a:Bi:t=1	!	!LO:TX:a:Bi:t=Dolce:color=red	!	!	!LO:TX:b:Bi:t=Dolce:color=red	!	!	!LO:TX:b:Bi:t=Dolce:color=red	!	!	!LO:TX:b:Bi:t=Dolce:color=red	!	!	!	!LO:TX:a:Bi:t=Dolce:color=red	!	!LO:TX:b:Bi:t=Dolce:color=red	!	!	!LO:TX:b:Bi:t=Dolce:color=red	!	!LO:TX:b:Bi:t=Dolce:color=red	!	!LO:TX:b:Bi:t=Dolce:color=red	!
!	!	!LO:DY:b:Bi:t=mezo piano:color=red:rj	!	!	!	!	!	!	!	!	!	!	!	!	!	!	!	!	!	!	!	!	!	!	!	!	!	!	!	!	!	!
4E-\	.	mp	1r	.	1r	.	1r	.	4E-\	San-	.	4B-\	San-	.	4g\	San-	.	4ee-\	San-	.	0r	4E-/	.	4e-\	.	4EE-/	4E-\	.	4g/	.	4ee-\	.
!	!	!	!	!	!	!	!	!	!LO:SIN:v:s=4A-\	!	!	!	!	!	!	!	!	!	!	!	!	!	!	!	!	!	!	!	!	!	!	!
4A-\	.	.	.	.	.	.	.	.	4G\	-ctus	.	4e-\	-ctus	.	4a-\	-[c]tus	.	4cc\	-ctus	.	.	4r	.	4r	.	4AA-/	4AA-/	.	4a-/	.	4cc\	.
*	*	*	*	*	*	*	*	*	*	*ij	*	*	*ij	*	*	*ij	*	*	*ij	*	*	*	*	*	*	*	*	*	*	*	*	*
4B-\	6 4	.	.	.	.	.	.	.	4B-\	San-	.	4e-\	San-	.	4g\	San-	.	4b-\	San-	.	.	4B-/	.	4B-/	.	4BB-/	4BB-/	.	4g/	.	4b-/	.
4BB-/	5 3	.	.	.	.	.	.	.	4BB-/	-ctus	.	4d\	-ctus	.	4f\	-ctus	.	4a-\	-ctus	.	.	4BB-/	.	4B-/	.	4BB-/	4BB-/	.	4f/	.	4a-/	.
*	*	*	*	*	*	*	*	*	*	*Xij	*	*	*Xij	*	*	*Xij	*	*	*Xij	*	*	*	*	*	*	*	*	*	*	*	*	*
.	.	.	.	.	.	.	.	.	.	.	.	.	.	.	.	.	.	16qqb-/	.	.	.	.	.	.	.	.	.	.	.	.	16qqb-/	.
=6	=6	=6	=6	=6	=6	=6	=6	=6	=6	=6	=6	=6	=6	=6	=6	=6	=6	=6	=6	=6	=6	=6	=6	=6	=6	=6	=6	=6	=6	=6	=6	=6
*	*	*	*	*	*	*	*	*	*	*ij	*	*	*ij	*	*	*ij	*	*	*	*	*	*	*	*	*	*	*	*	*	*	*	*
!	!	!	!	!	!	!	!	!	!	!	!	!	!	!	!	!	!	!	!	!	!	!	!	!	!	!	!LO:TX:t=P:problem:mixed beam	!	!	!	!	!
8BB-/L	7 5	.	2r	.	2r	.	2r	.	8BB-/	San-	.	8e-\	San-	.	8f\	San-	.	8a-\	San-	.	.	8BB-/L	.	8B-/L	.	8BB-/L	8BB-/L	.	8f|</L	.	8a-|</L	.
8E-/J	3	.	.	.	.	.	.	.	8E-\	-ctus	.	8e-\	-ctus	.	8e-\	-ctus	.	8g\	-ctus	.	.	8E-/J	.	8B-/J	.	8EE-/J	8E-\J	.	8e-|</J	.	8g|</J	.
*	*	*	*	*	*	*	*	*	*	*Xij	*	*	*Xij	*	*	*Xij	*	*	*	*	*	*	*	*	*	*	*	*	*	*	*	*
4r	.	.	.	.	.	.	.	.	4r	.	.	4r	.	.	4r	.	.	4r	.	.	.	4r	.	4r	.	4r	4r	.	4r	.	4r	.
!	!	!	!	!	!	!	!LO:TX:b:Bi:t=Dolce:color=red	!	!	!	!	!	!	!	!	!	!	!	!	!	!	!	!	!	!	!	!	!	!	!	!	!
2r	.	.	8r	.	8r	.	4.b-\	.	2r	.	.	2r	.	.	2r	.	.	2r	.	.	.	2r	.	2r	.	2r	2r	.	2r	.	2r	.
!	!	!	!LO:TX:b:Bi:t=Dolce:color=red:rj	!	!	!	!	!	!	!	!	!	!	!	!	!	!	!	!	!	!	!	!	!	!	!	!	!	!	!	!	!
.	.	.	8e-'>\L	.	8g'</L	p	.	.	.	.	.	.	.	.	.	.	.	.	.	.	.	.	.	.	.	.	.	.	.	.	.	.
.	.	.	8e-'>\	.	8g'</	.	.	.	.	.	.	.	.	.	.	.	.	.	.	.	.	.	.	.	.	.	.	.	.	.	.	.
.	.	.	8e-'>\J	.	8g'</J	.	8gg\	.	.	.	.	.	.	.	.	.	.	.	.	.	.	.	.	.	.	.	.	.	.	.	.	.
=7	=7	=7	=7	=7	=7	=7	=7	=7	=7	=7	=7	=7	=7	=7	=7	=7	=7	=7	=7	=7	=7	=7	=7	=7	=7	=7	=7	=7	=7	=7	=7	=7
!LO:TX:a:Bi:t=1	!	!	!	!	!	!	!	!	!LO:TX:a:Bi:t=1	!	!	!LO:TX:a:Bi:t=1	!	!	!LO:TX:a:Bi:t=1	!	!	!LO:TX:a:Bi:t=1	!	!	!	!LO:TX:a:Bi:t=1	!	!LO:TX:a:Bi:t=1	!	!	!LO:TX:a:Bi:t=1	!	!LO:TX:a:Bi:t=1	!	!LO:TX:a:Bi:t=1	!
1r	.	.	8r	.	8r	.	(>16ee-\LL	.	1r	.	.	1r	.	.	1r	.	.	1r	.	.	1r	1r	.	1r	.	1r	1r	.	1r	.	1r	.
.	.	.	.	.	.	.	16dd\JJ)	.	.	.	.	.	.	.	.	.	.	.	.	.	.	.	.	.	.	.	.	.	.	.	.	.
.	.	.	8B-'</L	.	8f'</L	.	4dd\	.	.	.	.	.	.	.	.	.	.	.	.	.	.	.	.	.	.	.	.	.	.	.	.	.
.	.	.	8B-'</	.	8f'</	.	.	.	.	.	.	.	.	.	.	.	.	.	.	.	.	.	.	.	.	.	.	.	.	.	.	.
.	.	.	8c'</J	.	8g'</J	.	8ee-\	.	.	.	.	.	.	.	.	.	.	.	.	.	.	.	.	.	.	.	.	.	.	.	.	.
.	.	.	(<8A-/L	.	8a-|</L	.	4cc\	.	.	.	.	.	.	.	.	.	.	.	.	.	.	.	.	.	.	.	.	.	.	.	.	.
.	.	.	8F/)	.	8a-|</	.	.	.	.	.	.	.	.	.	.	.	.	.	.	.	.	.	.	.	.	.	.	.	.	.	.	.
.	.	.	8B-'</	.	(<8g/	.	(>8b-\L	.	.	.	.	.	.	.	.	.	.	.	.	.	.	.	.	.	.	.	.	.	.	.	.	.
.	.	.	8B-'</J	.	8f/J)	.	8a-\J)	.	.	.	.	.	.	.	.	.	.	.	.	.	.	.	.	.	.	.	.	.	.	.	.	.
!	!	!	!	!	!LO:LB:g=original	!	!	!	!	!	!	!	!	!	!	!	!	!	!	!	!	!	!	!	!	!	!	!	!	!	!	!
=8	=8	=8	=8	=8	=8	=8	=8	=8	=8	=8	=8	=8	=8	=8	=8	=8	=8	=8	=8	=8	=8	=8	=8	=8	=8	=8	=8	=8	=8	=8	=8	=8
*	*	*	*	*	*	*	*	*	*	*	*	*	*	*	*	*	*	*	*	*	*2\right	*	*	*	*	*	*	*	*	*	*	*
2r	.	.	8B-/L	.	8f|</L	.	8a-|</L	.	2r	.	.	2r	.	.	2r	.	.	2r	.	.	2r	2r	.	2r	.	2r	2r	.	2r	.	2r	.
.	.	.	8E-/J	.	8e-|</J	.	8g|</J	.	.	.	.	.	.	.	.	.	.	.	.	.	.	.	.	.	.	.	.	.	.	.	.	.
.	.	.	4r	.	4r	.	4r	.	.	.	.	.	.	.	.	.	.	.	.	.	.	.	.	.	.	.	.	.	.	.	.	.
!	!	!	!	!	!	!	!	!	!	!	!	!	!	!	!	!	!	!	!	!	!LO:SIN:v:s=8E-\L	!	!	!	!	!	!	!	!	!	!	!
!	!	!LO:DY:b:rj	!	!LO:DY:b:rj	!	!LO:DY:b:rj	!	!LO:DY:b:rj	!	!	!LO:DY:a:rj	!	!	!LO:DY:b:rj	!	!	!LO:DY:b:rj	!	!	!LO:DY:b:rj	!	!	!LO:DY:b:rj	!	!	!	!	!	!	!	!	!
8G\L	-5 3	f	8e-'>\L	f	8b-'>\L	f	8dd-X\L	f	8G\	Do-	f	8B-\	Do-	f	8e-\	Do-	f	8dd-X\	Do-	f	8E\L	8E-/L	f	8e-\L	f	8GG/L	8G\L	f	8e-/L	f	8dd-X\L	f
!	!	!	!	!	!	!	!	!	!	!	!	!	!	!	!	!	!	!	!	!	!LO:SIN:v:s=16E-\L	!	!	!	!	!	!	!	!	!	!	!
16G\L	.	.	16e-'>\L	.	16b-'>\L	.	16dd-\L	.	16G\	-mi-	.	16B-\	-mi-	.	16e-\	-mi-	.	16dd-\	-mi-	.	16E\L	16E-/L	.	16e-\L	.	16GG/L	16G\L	.	16e-/L	.	16dd-\L	.
!	!	!	!	!	!	!	!	!	!	!	!	!	!	!	!	!	!	!	!	!	!LO:SIN:v:s=16E-\JJ	!	!	!	!	!	!	!	!	!	!	!
16G\JJ	.	.	16e-'>\JJ	.	16b-'>\JJ	.	16dd-\JJ	.	16G\	-nus	.	16B-\	-nus	.	16e-\	-nus	.	16dd-\	-nus	.	16E\JJ	16E-/JJ	.	16e-\JJ	.	16GG/JJ	16G\JJ	.	16e-/JJ	.	16dd-\JJ	.
!	!	!	!	!	!	!	!	!	!	!	!	!	!	!	!	!	!	!	!	!	!LO:SIN:v:s=8E-\L	!	!	!	!	!	!	!	!	!	!	!
8G\L	.	.	8e-'>\L	.	8b-'>\L	.	8dd-\L	.	8G\	De-	.	8B-\	De-	.	8e-\	De-	.	8dd-\	De-	.	8E\L	8E-/L	.	8e-\L	.	8GG/L	8G\L	.	8e-/L	.	8dd-\L	.
!	!	!	!	!	!	!	!	!	!	!	!	!	!	!	!	!	!	!	!	!	!LO:SIN:v:s=8E-\J	!	!	!	!	!	!	!	!	!	!	!
8G\J	.	.	8e-'>\J	.	8b-'>\J	.	8dd-\J	.	8G\	-us	.	8B-\	-us	.	8e-\	-us	.	8dd-\	-us	.	8E\J	8E-/J	.	8e-\J	.	8GG/J	8G\J	.	8e-/J	.	8dd-\J	.
=9	=9	=9	=9	=9	=9	=9	=9	=9	=9	=9	=9	=9	=9	=9	=9	=9	=9	=9	=9	=9	=9	=9	=9	=9	=9	=9	=9	=9	=9	=9	=9	=9
!	!	!	!	!	!	!	!	!	!	!	!	!	!	!	!	!	!	!	!	!	!LO:SIN:v:s=4E-	!	!	!	!	!	!	!	!	!	!	!
8A-\L	.	.	(>8f\L	.	(>8cc\L	.	(>8cc\L	.	8A-\L	Sa-	.	(>4c\	Sa-	.	8f\L	Sa-	.	8cc\L	Sa-	.	4E\	4E-/	.	4e-\	.	8AA-/L	8A-\L	.	(>8f/L	.	(>8cc\L	.
8G\	6\	.	8en\	.	8b-\	.	8een\	.	8G\J	.	.	.	.	.	8b-\	.	.	8een\J	.	.	.	.	.	.	.	8GG/	8G\	.	8b-/J	.	8een\	.
8F\	6	.	8a-\	.	8cc\	.	8ff\	.	8F\L	.	.	8A-\)	.	.	8cc\J	.	.	8ff\L	-ba-	.	4r	4r	.	4r	.	8FF/	8F\	.	8cc\L	.	8ff\	.
8A-\J	3	.	8cc\J)	.	8ff\J)	.	8aa-\J)	.	8A-\J	-ba-	.	8f\	-ba-	.	8cc\	-ba-	.	8aa-\J	.	.	.	.	.	.	.	8AA-/J	8A-\J	.	8ff\J)	.	8aa-\J)	.
!	!	!	!	!	!	!	!	!	!	!	!	!	!	!	!	!	!	!	!	!	!LO:TX:a:t=P:problem:w źródle oznaczenie pod nutami; najrpawdopodobniej tryl	!	!	!	!	!	!	!	!	!	!	!
!	!	!	!	!	!	!	!	!	!	!	!	!	!	!	!	!	!	!	!	!	!LO:SIN:v:s=4BB-/	!	!	!	!	!	!	!	!	!	!	!
4B-\	4	.	4b-\	.	4ee-\	.	4ee-X\	.	2B-\	-oth	.	(>4g\	-oth	.	2b-\	-oth	.	(>4ee-X\	-oth	.	4BB/	4BB-/	.	4B-/	.	4BB-/	4B-\	.	4gg\	.	4ee-X\	.
!	!	!	!	!	!	!	!	!	!	!	!	!	!	!	!	!	!	!	!	!	!LO:SIN:v:s=4BB-/	!	!	!	!	!	!	!	!	!	!	!
4BB-/	3	.	4b-\	.	4dd\	.	4ddn\	.	.	.	.	4f\)	.	.	.	.	.	4dd\)	.	.	4BB/	4BB-/	.	4B-/	.	4BBB-/	4BB-/	.	4ff\	.	4dd\	.
==	==	==	==	==	==	==	==	==	==	==	==	==	==	==	==	==	==	==	==	==	==	==	==	==	==	==	==	==	==	==	==	==
*-	*-	*-	*-	*-	*-	*-	*-	*-	*-	*-	*-	*-	*-	*-	*-	*-	*-	*-	*-	*-	*-	*-	*-	*-	*-	*-	*-	*-	*-	*-	*-	*-
!!title: @{OTL};
!!!RDF**kern: > = above
!!!RDF**kern: < = below
!!!RDF**dynam: f = "fort", fontstyle= "bold-italic", color= red
!!!RDF**dynam: p = "piano", fontstyle= "bold-italic", color= red
!!!RDF**dynam: > = "dim", fontstyle= "bold-italic", color= red
!!!RDF**dynam: < = "cres", fontstyle= "bold-italic", color= red
!!!RDF**kern: | = vertical stroke
!!!RDF**kern: N = linked
!!!RDF**kern: i = editorial accidental
!!!RDF**kern: l = terminal long
!!!AIN: 1 alto 1 cor 9 empty 1 organ 1 tenor 1 violn 1 vox
!!!ENC: Katarzyna Serwa
!!!END: 2020-11-03
!!!EED: Wojciech Jakubiak-Danek
!!!EEV: 2022-05-12
!!!URL-scan: http://repozytorium.nifc.pl/skany/pl-cz-nut--iii-696
!!!ONB-nifc: UWAGA: części Mszy: Kyrie, Gloria, Credo, Et incarnatus, Et resurrexit, Sanctus, Pleni sunt, Benedictus, Agnus Dei, Dona nobis
